svgs/bima_plus.svg

<svg width="192" height="192" viewBox="0 0 192 192" fill="none" xmlns="http://www.w3.org/2000/svg">
<path d="M58 26L96 30L134 26L144 85.5L168.639 96.1646C170.631 97.0269 170.015 100 167.844 100H96H24.1556C21.9847 100 21.3689 97.0269 23.3612 96.1646L48 85.5L58 26Z" stroke="black" stroke-width="12" stroke-linecap="round" stroke-linejoin="round"/>
<path d="M46.1577 120C48.1954 145.744 69.7322 166 96 166C122.268 166 143.805 145.744 145.842 120" stroke="black" stroke-width="12" stroke-linecap="round"/>
<path d="M96 146C107.046 146 116 137.046 116 126H76C76 137.046 84.9543 146 96 146Z" stroke="black" stroke-width="12" stroke-linejoin="round"/>
</svg>

<svg width="192" height="192" fill="none" xmlns="http://www.w3.org/2000/svg"><path d="m58 26 38 4 38-4 10 59.5 24.639 10.665c1.992.862 1.376 3.835-.795 3.835H24.156c-2.171 0-2.787-2.973-.795-3.835L48 85.5 58 26z" stroke="#000" stroke-width="12" stroke-linecap="round" stroke-linejoin="round"/><path d="M46.158 120c2.037 25.744 23.574 46 49.842 46 26.268 0 47.805-20.256 49.842-46" stroke="#000" stroke-width="12" stroke-linecap="round"/><path d="M96 146c11.046 0 20-8.954 20-20H76c0 11.046 8.954 20 20 20z" stroke="#000" stroke-width="12" stroke-linejoin="round"/></svg>
